src/icons/broken-heart.svg

<svg xmlns="http://www.w3.org/2000/svg"  viewBox="0 0 50 50" width="32px" height="32px"><path d="M 35 7 C 33.082031 7 31.261719 7.414063 29.5625 8.183594 L 28 15 L 31.699219 15 L 28.101563 24 L 30.699219 24 L 22.5 37.199219 L 25 26 L 21.699219 26 L 24.800781 17 L 20.601563 17 L 22.105469 9.132813 C 20.054688 7.742188 17.613281 7 15 7 C 7.832031 7 2 12.832031 2 20 C 2 31.601563 12.167969 38.40625 19.59375 43.378906 C 21.5 44.652344 23.144531 45.753906 24.359375 46.769531 C 24.546875 46.921875 24.773438 47 25 47 C 25.226563 47 25.453125 46.921875 25.640625 46.769531 C 26.859375 45.753906 28.5 44.65625 30.40625 43.378906 C 37.832031 38.40625 48 31.601563 48 20 C 48 12.832031 42.167969 7 35 7 Z"/></svg>

<svg role="img" viewBox="0 0 50 50" xmlns="http://www.w3.org/2000/svg"><path d="M35 7c-1.918 0-3.738.414-5.437 1.184L28 15h3.7l-3.598 9h2.597L22.5 37.2 25 26h-3.3l3.1-9h-4.198l1.503-7.867C20.055 7.743 17.613 7 15 7 7.832 7 2 12.832 2 20c0 11.602 10.168 18.406 17.594 23.379 1.906 1.273 3.55 2.375 4.765 3.39.188.153.414.231.641.231.227 0 .453-.078.64-.23 1.22-1.016 2.86-2.114 4.766-3.391C37.832 38.406 48 31.602 48 20c0-7.168-5.832-13-13-13"/></svg>
